symbols/web/nest_display_max/materialsymbolsoutlined/nest_display_max_wght300grad200_48px.svg

<svg xmlns="http://www.w3.org/2000/svg" height="48" width="48"><path d="M24 19.6q-.65 0-1.125-.475T22.4 18q0-.65.475-1.125T24 16.4q.65 0 1.125.475T25.6 18q0 .65-.475 1.125T24 19.6Zm0 18.2q-5.85 0-8.825-.725Q12.2 36.35 12.2 35.3v-1.5H8q-1.55 0-2.625-1.1T4.45 30L5.9 13.4q.15-1.4 1.125-2.325Q8 10.15 9.4 10.15h29.2q1.4 0 2.375.925Q41.95 12 42.1 13.4L43.55 30q.15 1.6-.925 2.7T40 33.8h-4.15v1.5q0 1.05-3 1.775-3 .725-8.85.725ZM8 30.9h32q.25 0 .425-.2t.175-.5l-1.4-16.55q0-.25-.175-.425t-.425-.175H9.4q-.25 0-.425.175t-.175.425L7.4 30.2q0 .3.175.5t.425.2Z"/></svg>

<svg xmlns="http://www.w3.org/2000/svg" height="48" width="48"><path d="M24 19.6Q23.35 19.6 22.875 19.125Q22.4 18.65 22.4 18Q22.4 17.35 22.875 16.875Q23.35 16.4 24 16.4Q24.65 16.4 25.125 16.875Q25.6 17.35 25.6 18Q25.6 18.65 25.125 19.125Q24.65 19.6 24 19.6ZM24 37.8Q18.15 37.8 15.175 37.075Q12.2 36.35 12.2 35.3V33.8H8Q6.45 33.8 5.375 32.7Q4.3 31.6 4.45 30L5.9 13.4Q6.05 12 7.025 11.075Q8 10.15 9.4 10.15H38.6Q40 10.15 40.975 11.075Q41.95 12 42.1 13.4L43.55 30Q43.7 31.6 42.625 32.7Q41.55 33.8 40 33.8H35.85V35.3Q35.85 36.35 32.85 37.075Q29.85 37.8 24 37.8ZM8 30.9H40Q40.25 30.9 40.425 30.7Q40.6 30.5 40.6 30.2L39.2 13.65Q39.2 13.4 39.025 13.225Q38.85 13.05 38.6 13.05H9.4Q9.15 13.05 8.975 13.225Q8.8 13.4 8.8 13.65L7.4 30.2Q7.4 30.5 7.575 30.7Q7.75 30.9 8 30.9Z"/></svg>
